X: 1099
T: Hüseynî Peşrev
C: Tanburî İsak
O: Turkey
F: http://compmusic.upf.edu/node/140
N: huseyni--pesrev--cifteduyek----tanburi_isak
N: makam= huseyni
N: form= pesrev
N: usul= cifteduyek = 16/4
M: 16/4
L: 1/16
K: C _2/4B ^3/4f  
Q: 1/4=60
%%MIDI tuningsystem comma53
A4 e2 d2 e4 =f4  | e8 d =f e d d4  | \
w:   |   | 
c2 d2 c2 _1/4B2 c4 d4  | e8 c2 _1/4B2 A4  | 
w:   |   | 
A2 z2 c2 d2 e4 =f4  | e8 d2 =f2 e2 d2  | \
w:   |   | 
c2 _1/4B2 c2 d2 e2 d2 c2 B2  | A6 c2 _1/4B2 A2 G4  | 
w:   |   | 
G2 z2 d2 c2 d6 e2  | d4 e2 d2 c4 d2 c2  | \
w:   |   | 
_1/4B4 c2 B2 c4 d2 c2  | d4 e2 d2 e6 z2  | 
w:   |   | 
=f2 e2 f2 g2 a2 g2 f2 e2  | d2 =f2 e2 d2 d6 z2  | \
w:   |   | 
c2 _1/4B2 c2 d2 e2 d2 c2 B2  | 
w:   | 
A6 c2 _1/4B2 ^A2 B4  | _1/4B2 z2 G2 A2 G4 A4  | \
w:   |   | 
G4 A2 _1/4B2 c6 z2  | c2 d2 c2 _1/4B2 A2 G2 A2 B2  | 
w:   |   | 
c2 d2 c2 _1/4B2 c2 B2 c4  | c2 z2 _1/4B2 A2 B4 c4  | \
w:   |   | 
_1/4B2 c2 B2 c2 d6 z2  | A2 G2 ^F2 G2 F4 G4  | 
w:   |   | 
A2 c4 _1/4B A A4 z4  | d8 d4 e2 =f2  | \
w:   |   | 
g3 =f f3 e e3 d d3 c  | _1/4B6 c2 d4 e4  | 
w:   |   | 
e2 z2 d2 e2 =f2 e2 d2 c4 c2 z2 e2 e2 e4 f4 e8 f2 e2 d4 c2 _1/4B2 c2 d2 e2 d2 c2  | 
w:   | 
_1/4B2 A6 c2 B2 A2 G4 d8 d4 e2  | \
w:   | 
=f2 g3 f f3 e e3 d d3 c _1/4B6 c2 d4 e4 e4 d2 e2 e2 d2 c4 c2 z2 e2 e2 e4 f4 e8 f2 e2 d4 c2 B2 c2 d2 e2 d2 c2  | 
w:   | 
_1/4B2 A6 c2 B2 A2 G4 e2 ^f2 g2 a2 f2 g2 e2  | \
w:   | 
=f2 d2 f4 e d d6  | z2 c2 _1/4B2 c2 d2 e2 d2 c2  | 
w:   |   | 
_1/4B2 A6 c2 B2 ^A2 B4 e2 ^f2 g2 a2 f2 g2 e2  | \
w:   | 
=f2 d2 f2 e2 d2 d6  | z2 c2 _1/4B2 c2 d2 e2 d2 c2  | 
w:   |   | 
_1/4B2 A6 c2 B2 A2 B4 B2 z2 G2 A2 G4 A4 G4 A2 B2 c8 c2 d2 c2 B2 A2 G2 A2  | 
w:   | 
_1/4B2 c6 B2 c2 B2 c4 c2 z2 B2 A2 B4 c4 B2 c2 B2 c2 d6  | \
w:   | 
z2 _1/4B4 c4 B2 A2 G2  | 
w:   | 
A2 G4 A4 A6  | z2 |


